neru-light-classic/22x22/places/folder-yandex-disk.svg

<?xml version="1.0" encoding="UTF-8" standalone="no"?>
<svg
   xmlns:dc="http://purl.org/dc/elements/1.1/"
   xmlns:cc="http://creativecommons.org/ns#"
   xmlns:rdf="http://www.w3.org/1999/02/22-rdf-syntax-ns#"
   xmlns:svg="http://www.w3.org/2000/svg"
   xmlns="http://www.w3.org/2000/svg"
   xmlns:sodipodi="http://sodipodi.sourceforge.net/DTD/sodipodi-0.dtd"
   xmlns:inkscape="http://www.inkscape.org/namespaces/inkscape"
   width="22"
   height="22"
   version="1.1"
   viewBox="0 0 16 16"
   id="svg7"
   sodipodi:docname="folder-yandex-disk.svg"
   inkscape:version="0.92.4 5da689c313, 2019-01-14">
  <metadata
     id="metadata11">
    <rdf:RDF>
      <cc:Work
         rdf:about="">
        <dc:format>image/svg+xml</dc:format>
        <dc:type
           rdf:resource="http://purl.org/dc/dcmitype/StillImage" />
      </cc:Work>
    </rdf:RDF>
  </metadata>
  <sodipodi:namedview
     pagecolor="#ffffff"
     bordercolor="#666666"
     borderopacity="1"
     objecttolerance="10"
     gridtolerance="10"
     guidetolerance="10"
     inkscape:pageopacity="0"
     inkscape:pageshadow="2"
     inkscape:window-width="769"
     inkscape:window-height="515"
     id="namedview9"
     showgrid="false"
     inkscape:zoom="10.727273"
     inkscape:cx="11"
     inkscape:cy="11"
     inkscape:window-x="0"
     inkscape:window-y="28"
     inkscape:window-maximized="0"
     inkscape:current-layer="svg7" />
  <defs
     id="defs3">
    <style
       id="current-color-scheme"
       type="text/css">
   .ColorScheme-Text { color:#5c616c; } .ColorScheme-Highlight { color:#5294e2; }
  </style>
  </defs>
  <path
     style="color:#5c616c;fill:#1e333d;stroke-width:0.7272892;fill-opacity:1"
     class="ColorScheme-Text"
     d="m 7.33962,3.6532001 c -2.5859178,0 -1.9843223,2.3623587 -3.3083137,3.0739338 -0.045633,0.025892 -0.071292,0.049739 -0.1122185,0.075285 C 4.7922333,6.282706 5.8684468,5.8481669 7.0114874,5.5538111 7.9794425,5.3048033 8.9612335,5.1651051 9.866666,5.1475519 c 0.023266,-8.29e-5 0.046474,-8.29e-5 0.069602,0 C 9.0631005,4.8994261 8.9676213,3.6532001 7.33962,3.6532001 Z m 2.818246,2.1491965 C 9.2524336,5.8199534 8.2706426,5.9596473 7.3026875,6.2086559 4.1124523,7.0295917 1.8388239,8.8147865 2.2244471,10.195962 c 0.2222024,0.789257 1.292807,1.310078 2.8878496,1.404862 -7.273e-4,-0.006 -0.00219,-0.01108 -0.00284,-0.01705 -0.086102,-0.746749 0.3877026,-1.396352 0.9432032,-1.8366905 0.5555007,-0.440339 1.2700427,-0.760079 2.07249,-0.930419 0.8024473,-0.170339 1.5537919,-0.162106 2.1818681,0.02699 0.590481,0.177777 1.146023,0.565689 1.2827,1.2315615 C 13.18835,9.1789555 14.017524,8.0983241 13.777263,7.2243015 13.522745,6.3092307 12.134641,5.7639048 10.157866,5.8023966 Z M 9.2089802,9.4374225 A 1.3517233,2.6014834 76.001371 0 0 8.2075371,9.5411175 1.3517233,2.6014834 76.001371 0 0 5.8225401,11.431787 1.3517233,2.6014834 76.001371 0 0 8.5200446,12.242884 1.3517233,2.6014834 76.001371 0 0 10.903622,10.352215 1.3517233,2.6014834 76.001371 0 0 9.2089802,9.4374225 Z"
     id="path5"
     inkscape:connector-curvature="0" />
</svg>

<svg xmlns="http://www.w3.org/2000/svg" width="22" height="22" version="1.1" viewBox="0 0 16 16" id="svg7"><defs id="defs3"><style id="current-color-scheme" type="text/css"></style></defs><path d="M7.34 3.653c-2.586 0-1.985 2.363-3.309 3.074-.045.026-.071.05-.112.075.873-.52 1.95-.954 3.092-1.248a12.616 12.616 0 0 1 2.925-.406c-.873-.249-.968-1.495-2.596-1.495zm2.818 2.15c-.906.017-1.887.157-2.855.406-3.19.82-5.464 2.606-5.079 3.987.223.79 1.293 1.31 2.888 1.405 0-.006-.002-.011-.003-.017-.086-.747.388-1.397.944-1.837.555-.44 1.27-.76 2.072-.93.803-.17 1.554-.162 2.182.027.59.177 1.146.565 1.283 1.231 1.598-.896 2.428-1.977 2.187-2.85-.254-.916-1.642-1.461-3.62-1.423zm-.949 3.634a1.352 2.601 76.001 0 0-1.001.104 1.352 2.601 76.001 0 0-2.385 1.89 1.352 2.601 76.001 0 0 2.697.812 1.352 2.601 76.001 0 0 2.384-1.89 1.352 2.601 76.001 0 0-1.695-.916z" id="path5" color="#5c616c" fill="#1e333d" stroke-width=".727" fill-opacity="1"/></svg>
